X: 10
T: No_19_I_Am_Going_to_Make_You_Better.krn
N: Derived from No_19_I_Am_Going_to_Make_You_Better.krn
%%abc-version 2.0
%%abcx-abcm2ps-target-version 5.9.1 (29 Sep 2008)
%%abc-creator hum2abc beta
%%abcx-conversion-date 2019/03/15 08:26:49
%%humdrum-veritas 4201368365
%%humdrum-veritas-data 2924457391
%%linebreak <none>
%%barnumbers 0
L: 1/16
M: 2/4
%%staves {1 2}
V: 1 clef=bass
V: 2 clef=bass
K: B
[V:1] [K:clef=bass][M:2/4]z3 B, C3D | 
[V:2] [K:clef=bass][M:2/4]G,,G,,G,,G,, G,,G,,G,,G,, | 
[V:1] D4D3D | 
[V:2] G,,G,,G,,G,,z4 | 
[V:1] D2C2 z3 D ]|:  
[V:2] z8 ]|:  
[V:1] D4(3E2D2C2 ||  
[V:2] z8 ||  
[V:1] [M:3/4]C4(3:2:5D2C2B, z/ B,/ B,2C2 ||  
[V:2] [M:3/4]z12 ||  
[V:1] [M:2/4]D4z3 D | 
[V:2] [M:2/4]z8 | 
[V:1] D4DC2C | 
[V:2] z8 | 
[V:1] C2B,2- B,2 z G, | 
[V:2] z8 | 
[V:1] C2C2 C2C2 | 
[V:2] z8 | 
[V:1] B,4z3 G, | 
[V:2] z8 | 
[V:1] C3C CDCB, ||  
[V:2] z8 ||  
[V:1] [M:3/8]B,4C2 ||  
[V:2] [M:3/8]z6 ||  
[V:1] [M:5/8]B,4B,CB,2 z C ||  
[V:2] [M:5/8](3:2:1z15 ||  
[V:1] [M:3/4]C4(3D2C2B,2 B,C3 | 
[V:2] [M:3/4]z12 | 
[V:1] D8z3 C | 
[V:2] z12 | 
[V:1] C3DD4D3D ||  
[V:2] z12 ||  
[V:1] [M:2/4]D2C2- C2 z D :|]  
[V:2] [M:2/4]z8 :|]  



